X: 3617
T: Bill Hoare's
R: reel
M: 4/4
K: Dmajor
DB,|A,B,DE FDD2|FDFA dBAg|f2ef dBAF|BFAF EDB,D|
A,B,DE FDD2|FDFA dBAg|f2ef dBAF|EDB,C D4:|
FA|d2fd adfd|g2ed cABc|d2fd adfd|eged cABc|
d2fd adfd|g2ed cABc|d2ce dBAF|EDB,C D4:|

